apes/app/img/titles/6.svg

<svg width="1230" height="201" viewBox="0 0 1230 201" fill="none" xmlns="http://www.w3.org/2000/svg">
<path d="M0.744629 197H25.2661V94.168C25.2661 87.0488 29.8804 82.4346 36.8677 82.4346H122.429V61.6045H35.9448C29.4849 61.6045 25.2661 57.6494 25.2661 51.7168V34.0508C25.2661 28.25 29.4849 24.5586 35.9448 24.5586H122.429V3.72852H0.744629V197Z" fill="white"/>
<path d="M209.705 200.164C252.683 200.164 281.423 172.874 281.423 132.005V68.3281C281.423 27.8545 252.683 0.564453 209.705 0.564453C166.594 0.564453 137.722 27.8545 137.722 68.3281V132.005C137.722 172.874 166.594 200.164 209.705 200.164ZM162.375 130.423V70.1738C162.375 41.5654 181.36 22.3174 209.705 22.3174C237.917 22.3174 257.034 41.5654 257.034 70.1738V130.423C257.034 159.163 237.917 178.411 209.705 178.411C181.36 178.411 162.375 159.163 162.375 130.423Z" fill="white"/>
<path d="M373.972 199.505C414.578 199.505 441.736 172.61 441.736 132.005V3.72852H417.214V132.137C417.214 159.69 399.812 177.884 373.972 177.884C348.132 177.884 330.73 159.69 330.73 132.137V3.72852H306.208V132.005C306.208 172.61 333.367 199.505 373.972 199.505Z" fill="white"/>
<path d="M471.399 197H495.92V46.5752C495.92 37.3467 501.721 33.6553 509.763 38.2695L573.044 75.0518C578.582 78.3477 581.086 82.5664 581.086 88.8945V197H605.74V3.72852H581.086V36.9512C581.086 46.1797 575.286 50.0029 567.244 45.2568L495.657 3.72852H471.399V197Z" fill="white"/>
<path d="M696.179 3.72852H636.721V197H698.025C740.476 197 769.744 167.205 769.744 124.227V76.1064C769.744 33.1279 739.817 3.72852 696.179 3.72852ZM661.243 166.546V34.1826C661.243 28.5137 665.857 24.5586 672.185 24.5586H692.62C723.997 24.5586 745.354 46.0479 745.354 77.9521V122.645C745.354 154.549 724.656 176.17 694.465 176.17H672.185C665.857 176.17 661.243 172.215 661.243 166.546Z" fill="white"/>
<path d="M795.979 197H917.664V176.17H832.102C825.115 176.17 820.5 171.556 820.5 164.568V94.168C820.5 87.0488 825.115 82.4346 832.102 82.4346H917.664V61.6045H831.179C824.719 61.6045 820.5 57.6494 820.5 51.7168V34.0508C820.5 28.25 824.719 24.5586 831.179 24.5586H917.664V3.72852H795.979V197Z" fill="white"/>
<path d="M942.581 197H967.102V89.8174C967.102 86.6533 968.025 82.4346 973.298 82.4346C977.781 82.4346 980.022 86.6533 981.472 88.7627L1051.87 197H1080.22L1011.27 92.0586C1010.08 90.3447 1009.42 88.7627 1009.42 87.3125C1009.42 84.5439 1011.4 82.4346 1016.01 82.4346H1042.64C1066.9 82.4346 1083.65 66.2188 1083.65 43.0156C1083.65 19.8125 1066.9 3.72852 1042.64 3.72852H942.581V197ZM967.102 50.6621V34.9736C967.102 27.5908 971.716 24.5586 979.231 24.5586H1038.03C1051.08 24.5586 1059.12 31.5459 1059.12 43.0156C1059.12 54.3535 1051.08 61.6045 1038.03 61.6045H979.231C971.848 61.6045 967.102 58.5723 967.102 50.6621Z" fill="white"/>
<path d="M1162.61 199.373C1203.48 199.373 1229.32 176.961 1229.32 140.442C1229.32 106.692 1207.57 86.2578 1171.98 85.4668L1156.42 85.0713C1134.27 84.6758 1121.09 73.6016 1121.09 55.4082C1121.09 35.7646 1136.77 22.8447 1160.24 22.8447C1185.55 22.8447 1201.77 37.083 1201.77 59.627V67.5371H1226.29V59.0996C1226.29 23.2402 1201.24 1.0918 1160.51 1.0918C1122.14 1.0918 1096.56 22.9766 1096.56 56.0674C1096.56 88.499 1117.79 107.483 1152.86 108.274L1168.42 108.67C1191.09 109.065 1204.8 121.59 1204.67 141.893C1204.54 164.041 1188.32 177.884 1162.88 177.884C1135.98 177.884 1118.98 161.404 1118.98 135.301V127.127H1094.46V135.828C1094.46 175.115 1120.43 199.373 1162.61 199.373Z" fill="white"/>
</svg>

<svg xmlns="http://www.w3.org/2000/svg" fill="none" viewBox="0 0 1230 201">
  <path fill="#fff" d="M.7 197h24.6V94.2c0-7.2 4.6-11.8 11.6-11.8h85.5V61.6H36c-6.4 0-10.6-4-10.6-9.9V34.1c0-5.9 4.2-9.5 10.6-9.5h86.5V3.7H.7V197Zm209 3.2c43 0 71.7-27.3 71.7-68.2V68.3C281.4 28 252.7.6 209.7.6c-43.1 0-72 27.3-72 67.7V132c0 40.9 28.9 68.2 72 68.2Zm-47.3-69.8V70.2c0-28.6 19-47.9 47.3-47.9 28.2 0 47.3 19.3 47.3 47.9v60.2c0 28.8-19 48-47.3 48-28.3 0-47.3-19.2-47.3-48ZM374 199.5c40.6 0 67.7-26.9 67.7-67.5V3.7h-24.5v128.4c0 27.6-17.4 45.8-43.2 45.8-25.9 0-43.3-18.2-43.3-45.8V3.7h-24.5V132c0 40.6 27.2 67.5 67.8 67.5Zm97.4-2.5h24.5V46.6c0-9.3 5.8-13 13.9-8.3L573 75c5.6 3.2 8 7.5 8 13.8V197h24.7V3.7h-24.6V37c0 9.2-5.8 13-13.9 8.3L495.7 3.7h-24.3V197ZM696.2 3.7h-59.5V197H698c42.5 0 71.7-29.8 71.7-72.8v-48c0-43-29.9-72.5-73.5-72.5Zm-35 162.8V34.2c0-5.7 4.7-9.6 11-9.6h20.4c31.4 0 52.8 21.4 52.8 53.4v44.6c0 32-20.7 53.6-51 53.6h-22.2c-6.3 0-11-4-11-9.7ZM796 197h121.7v-20.8H832c-7 0-11.6-4.6-11.6-11.6V94.2c0-7.2 4.6-11.8 11.6-11.8h85.6V61.6h-86.5c-6.5 0-10.7-4-10.7-9.9V34.1c0-5.9 4.2-9.5 10.7-9.5h86.5V3.7H796V197Zm146.6 0H967V89.8c0-3.1 1-7.4 6.2-7.4 4.5 0 6.7 4.3 8.2 6.4l70.4 108.2h28.3l-69-105a8.6 8.6 0 0 1-1.8-4.7c0-2.8 2-4.9 6.6-4.9h26.6c24.3 0 41-16.2 41-39.4s-16.7-39.3-41-39.3h-100V197ZM967 50.7V35c0-7.4 4.6-10.4 12.1-10.4h58.8c13 0 21.1 7 21.1 18.4 0 11.4-8 18.6-21 18.6h-58.9c-7.4 0-12.1-3-12.1-11Zm195.6 148.7c40.9 0 66.7-22.4 66.7-59 0-33.7-21.7-54.1-57.3-55l-15.6-.3c-22.1-.4-35.3-11.5-35.3-29.7 0-19.6 15.7-32.6 39.1-32.6 25.3 0 41.6 14.3 41.6 36.8v8h24.5V59c0-35.9-25-58-65.8-58-38.4 0-64 21.9-64 55 0 32.4 21.3 51.4 56.4 52.2l15.5.4c22.7.4 36.4 12.9 36.3 33.2-.2 22.1-16.4 36-41.8 36-27 0-44-16.5-44-42.6V127h-24.4v8.7c0 39.3 26 63.6 68.1 63.6Z"/>
</svg>
